src/status/16/si-syncthing-10.svg

<svg xmlns="http://www.w3.org/2000/svg" viewBox="0 0 16 16">
 <path style="fill:#2e3440;opacity:1;fill-opacity:1;stroke:none;fill-rule:nonzero" d="m 1.937772 4.499913 a 7 7 0 0 0 2.562178 9.562178 7 7 0 0 0 0.07469 0.03861 1.5 1.5 0 0 0 1.08634 1.727775 A 1.5 1.5 0 0 0 7.427719 14.967605 7 7 0 0 0 14.06213 11.499914 7 7 0 0 0 14.983375 7.595672 1.5 1.5 0 0 0 15.5958 5.964612 1.5 1.5 0 0 0 14.251586 4.859262 7 7 0 0 0 11.499949 1.937735 7 7 0 0 0 9.169742 1.106591 1.5 1.5 0 0 0 8.106871 0.037378 1.5 1.5 0 0 0 6.375616 0.817249 1.5 1.5 0 0 0 6.269466 1.098765 1.5 1.5 0 0 0 6.243203 1.230194 7 7 0 0 0 1.937774 4.499914 z m 0.866026 0.499998 a 6 6 0 0 1 3.607482 -2.779589 1.5 1.5 0 0 0 0.919571 0.715846 1.5 1.5 0 0 0 0.271124 0.04603 L 8.335 5.717 A 1.5 1.5 0 0 0 7.734229 7.339062 1.5 1.5 0 0 0 8.173142 8.05931 L 6.137 12.883 A 1.5 1.5 0 0 0 5.078019 13.236628 6 6 0 0 1 4.999947 13.196056 6 6 0 0 1 2.803796 4.999904 z m 5.764 -2.27651 a 1.5 1.5 0 0 0 0.516577 -0.617392 6 6 0 0 1 1.915574 0.697752 6 6 0 0 1 2.265376 2.334065 1.5 1.5 0 0 0 -0.580041 0.887473 l -2.159 0.26 A 1.5 1.5 0 0 0 9.300563 5.458123 z M 9.0949 8.447151 A 1.5 1.5 0 0 0 9.57115 8.399609 1.5 1.5 0 0 0 10.646433 7.279352 L 12.806 7.02 A 1.5 1.5 0 0 0 13.992896 7.842482 6 6 0 0 1 13.196103 10.999913 6 6 0 0 1 7.491026 13.97124 1.5 1.5 0 0 0 7.05952 13.273312 z"/>
</svg>

<svg viewBox="0 0 16 16" xmlns="http://www.w3.org/2000/svg">
 <path d="m1.9378 4.4999a7 7 0 0 0 2.5622 9.5622 7 7 0 0 0 0.07469 0.03861 1.5 1.5 0 0 0 1.0863 1.7278 1.5 1.5 0 0 0 1.7667-0.86087 7 7 0 0 0 6.6344-3.4677 7 7 0 0 0 0.92124-3.9042 1.5 1.5 0 0 0 0.61242-1.6311 1.5 1.5 0 0 0-1.3442-1.1054 7 7 0 0 0-2.7516-2.9215 7 7 0 0 0-2.3302-0.83114 1.5 1.5 0 0 0-1.0629-1.0692 1.5 1.5 0 0 0-1.7313 0.77987 1.5 1.5 0 0 0-0.10615 0.28152 1.5 1.5 0 0 0-0.026263 0.13143 7 7 0 0 0-4.3054 3.2697zm0.86603 0.5a6 6 0 0 1 3.6075-2.7796 1.5 1.5 0 0 0 0.91957 0.71585 1.5 1.5 0 0 0 0.27112 0.04603l0.73302 2.7348a1.5 1.5 0 0 0-0.60077 1.6221 1.5 1.5 0 0 0 0.43891 0.72025l-2.0361 4.8237a1.5 1.5 0 0 0-1.059 0.35363 6 6 0 0 1-0.078072-0.040572 6 6 0 0 1-2.1962-8.1962zm5.764-2.2765a1.5 1.5 0 0 0 0.51658-0.61739 6 6 0 0 1 1.9156 0.69775 6 6 0 0 1 2.2654 2.3341 1.5 1.5 0 0 0-0.58004 0.88747l-2.159 0.26a1.5 1.5 0 0 0-1.2257-0.82718zm0.5271 5.7238a1.5 1.5 0 0 0 0.47625-0.047542 1.5 1.5 0 0 0 1.0753-1.1203l2.1596-0.25935a1.5 1.5 0 0 0 1.1869 0.82248 6 6 0 0 1-0.79679 3.1574 6 6 0 0 1-5.7051 2.9713 1.5 1.5 0 0 0-0.43151-0.69793z" fill="#2e3440"/>
</svg>
